src/static/logos/qordoba.svg

<?xml version="1.0" encoding="UTF-8" standalone="no"?>
<svg width="256px" height="256px" viewBox="0 0 256 256" version="1.1" xmlns="http://www.w3.org/2000/svg" xmlns:xlink="http://www.w3.org/1999/xlink" preserveAspectRatio="xMidYMid">
    <g>
        <path d="M128,0 C57.308,0 0,57.308 0,128 C0,198.693 57.308,256 128,256 C198.692,256 256,198.693 256,128 C256,57.308 198.692,0 128,0 Z M166.486,199.647 C155.05,205.719 142.011,209.172 128.16,209.172 C82.95,209.172 46.301,172.522 46.301,127.313 C46.301,82.103 82.95,45.454 128.16,45.454 C173.37,45.454 210.019,82.103 210.019,127.313 C210.019,142.913 205.652,157.492 198.079,169.899 L217.465,219.542 L166.486,199.647 Z M127.1419,90.419 C107.2579,90.419 91.1389,106.538 91.1389,126.422 C91.1389,146.305 107.2579,162.424 127.1419,162.424 C147.0259,162.424 163.1449,146.305 163.1449,126.422 C163.1449,106.538 147.0259,90.419 127.1419,90.419 Z" fill="#5656A9"></path>
    </g>
</svg>

<svg width="256" height="256" xmlns="http://www.w3.org/2000/svg" preserveAspectRatio="xMidYMid"><path d="M128 0C57.308 0 0 57.308 0 128c0 70.693 57.308 128 128 128 70.692 0 128-57.307 128-128C256 57.308 198.692 0 128 0zm38.486 199.647c-11.436 6.072-24.475 9.525-38.326 9.525-45.21 0-81.859-36.65-81.859-81.859 0-45.21 36.649-81.859 81.859-81.859 45.21 0 81.859 36.649 81.859 81.859 0 15.6-4.367 30.179-11.94 42.586l19.386 49.643-50.979-19.895zM127.142 90.419c-19.884 0-36.003 16.119-36.003 36.003 0 19.883 16.119 36.002 36.003 36.002s36.003-16.119 36.003-36.002c0-19.884-16.12-36.003-36.003-36.003z" fill="#5656A9"/></svg>
